X: 33
T:Horizonto
M:6/8
L:1/8
R:Jig
C:Paul James
N:Posted to uk.music.folk 04 April 2004
Z:Steve Mansfield 27 March 2003
K:Em
BcB ABG | AFG EFD | B,2E EFG | FEF DEF | G2G GAG |
FEF DEF | GFE FED |1 B,CD E3 :|2 E3 E3 || C2C EFG |
C2C EFG | B,2B, EFG | B,2B, EFG | C2C EFG |
C2C EFG |1 BcB ABG | AFG EFD :|2 ^C2C EFG | ^C2C EFG ||
c2 B-BAG | F3 FGA | B2A-AGF | E3 EFG | A2G-GFE |
^D3 DEF | GFG AGA | B3 GAB | c2 d-dc2 | F3 FGA |
B2c-cB2 | E3 EFG | A2G-GFE | ^D3 DEF | GFE FED | E3 E3 ||
<end>
<start>
